X:1
T: Miss Helen McInnes
C:William Marshall
R:Jig
Q:180
K:A
M:6/8
L:1/16
E4A2 A4F2|G2A2B2 B2G2E2|E2G2A2 A2B2c2|d2e2f2 e2c2A2|d2f2a2 e2d2c2|B2c2A2 G2F2E2|F2G2A2 B2G2E2|A6A6|
E4A2 A4F2|G2A2B2 B2G2E2|E2G2A2 A2B2c2|d2e2f2 e2c2A2|d2f2a2 e2d2c2|B2c2A2 G2F2E2|F2G2A2 B2G2E2|A6A4e2|
c2e2a2 c2e2a2|^d2f2b2 d2f2b2|g2e2B2 g2e2B2|f2g2e2 ^d2c2B2|b2g2b2 a2f2a2|g2e2g2 f2^d2B2|c2d2e2 f2^d2B2|e6E6|
E4A2 A4F2|G2A2B2 B2G2E2|E2G2A2 A2B2c2|d2e2f2 e2c2A2|d2f2a2 e2d2c2|B2c2A2 G2F2E2|F2G2A2 B2G2E2|A6A6||
